logos/grafana.svg

<svg id="ef20ojojlv51" xmlns="http://www.w3.org/2000/svg" xmlns:xlink="http://www.w3.org/1999/xlink" viewBox="0 0 769 769" shape-rendering="geometricPrecision" text-rendering="geometricPrecision">
    <style>
        <![CDATA[#ef20ojojlv51{pointer-events: all} #ef20ojojlv51:hover * {animation-play-state: running !important}#ef20ojojlv54_tr {animation: ef20ojojlv54_tr__tr 11500ms linear infinite normal forwards}@keyframes ef20ojojlv54_tr__tr { 0% {transform: translate(381.556015px,384.486542px) rotate(0deg)} 100% {transform: translate(381.556015px,384.486542px) rotate(-360deg)} }]]>
    </style>
    <g id="ef20ojojlv52" transform="matrix(4 0 0 4 -761.40002440000001 -2310.82312011999920)">
        <path
            id="ef20ojojlv53"
            d="M382.130000,673.850000C382.130000,697.910000,382.130000,721.980000,382.130000,746.040000C382.130000,757.070000,373.810000,767.150000,362.950000,769.220000C361.340000,769.530000,359.680000,769.700000,358.050000,769.700000C310.080000,769.730000,262.120000,769.720000,214.150000,769.720000C202.390000,769.720000,192.130000,760.700000,190.590000,749C190.450000,747.970000,190.360000,746.920000,190.360000,745.880000C190.350000,697.790000,190.350000,649.700000,190.350000,601.620000C190.350000,590.590000,198.670000,580.500000,209.530000,578.440000C211.140000,578.130000,212.800000,577.960000,214.430000,577.960000C262.440000,577.940000,310.450000,577.940000,358.450000,577.940000C369.480000,577.940000,379.580000,586.270000,381.630000,597.120000C381.930000,598.730000,382.110000,600.390000,382.110000,602.020000C382.140000,625.970000,382.130000,649.910000,382.130000,673.850000Z"
            fill="rgb(255,203,40)"
            stroke="none"
            stroke-width="1"
        />
    </g>
    <g id="ef20ojojlv54_tr" transform="translate(381.556015,384.486542) rotate(0)">
        <g id="ef20ojojlv54" transform="scale(4,4) translate(-284.233643,-673.817322)">
            <path
                id="ef20ojojlv55"
                d="M291,589.280000C297.830000,593.030000,302.820000,598.410000,305.760000,605.680000C306.060000,606.430000,307.070000,607.140000,307.890000,607.390000C312.460000,608.780000,317.060000,610.080000,321.690000,611.260000C322.620000,611.500000,323.880000,611.380000,324.710000,610.920000C328.850000,608.660000,333.290000,607.700000,337.940000,607.430000C339.710000,607.330000,340.680000,607.980000,341.370000,609.610000C343.230000,614.020000,344.240000,618.490000,343.650000,623.330000C343.500000,624.550000,344.240000,626.210000,345.120000,627.160000C355.540000,638.560000,361.380000,651.850000,362.050000,667.330000C362.080000,668.080000,362.210000,668.880000,362,669.570000C361.820000,670.180000,361.240000,670.670000,360.830000,671.220000C360.300000,670.800000,359.500000,670.480000,359.300000,669.940000C358.330000,667.400000,357.700000,664.730000,356.650000,662.230000C347.830000,641.280000,332.540000,627.740000,309.760000,625.180000C280.900000,621.940000,256.920000,635.090000,250.920000,668.900000C246.050000,696.340000,263.430000,717.440000,284.130000,723.280000C299.840000,727.720000,313.990000,725.250000,324.710000,712.160000C332.840000,702.240000,335.760000,690.750000,330.510000,678.430000C325.350000,666.310000,311.140000,659.610000,299.320000,663.190000C289.080000,666.290000,282.320000,676.970000,284.100000,687.240000C286.020000,698.300000,297.800000,704.790000,308.160000,700.600000C309.040000,700.250000,310.270000,700.770000,311.330000,700.880000C310.880000,701.860000,310.700000,703.220000,309.940000,703.780000C303.320000,708.660000,293.030000,708.210000,285.330000,702.860000C274.850000,695.580000,271.360000,681.970000,276.670000,669.080000C283.230000,653.160000,300.160000,645.110000,317.910000,649.470000C338.810000,654.600000,352.800000,674.020000,351.190000,695.500000C351.110000,696.580000,351.710000,698.010000,352.480000,698.800000C356.330000,702.760000,358.880000,707.380000,359.860000,712.790000C360.030000,713.710000,359.510000,715.190000,358.800000,715.750000C354.960000,718.780000,350.570000,720.720000,345.620000,720.800000C343.650000,720.830000,342.760000,721.760000,341.580000,723.110000C337.750000,727.470000,333.590000,731.550000,329.690000,735.840000C328.790000,736.830000,327.950000,738.220000,327.790000,739.510000C326.970000,746.510000,323.960000,752.430000,319.310000,757.570000C318.780000,758.160000,317.470000,758.490000,316.650000,758.320000C310.130000,756.950000,304.550000,753.900000,300.020000,748.900000C299.160000,747.960000,297.580000,747.410000,296.250000,747.200000C289.590000,746.150000,282.910000,745.210000,276.220000,744.390000C274.900000,744.230000,273.250000,744.380000,272.160000,745.050000C265.180000,749.320000,257.690000,751.640000,249.500000,751.890000C247.260000,751.960000,246.410000,751.120000,245.810000,749.100000C243.720000,742.060000,243.520000,735.020000,245.510000,727.970000C245.950000,726.400000,245.690000,725.460000,244.700000,724.210000C241.950000,720.760000,239.450000,717.120000,236.800000,713.590000C236.270000,712.890000,235.590000,711.940000,234.870000,711.810000C223.310000,709.870000,214.160000,703.820000,206.350000,695.390000C206.350000,695.010000,206.350000,694.640000,206.350000,694.260000C206.490000,694.140000,206.690000,694.050000,206.750000,693.900000C210.610000,684.110000,216.940000,676.460000,226.110000,671.180000C226.850000,670.750000,227.410000,669.640000,227.640000,668.750000C228.910000,663.660000,230.090000,658.540000,231.180000,653.410000C231.350000,652.620000,231.200000,651.550000,230.770000,650.890000C225.080000,642.190000,222.750000,632.590000,222.740000,622.280000C222.740000,620.050000,223.430000,618.890000,225.550000,618.150000C235.260000,614.760000,244.970000,614.160000,254.860000,617.370000C255.900000,617.710000,257.360000,617.420000,258.410000,616.950000C263.620000,614.610000,268.770000,612.130000,273.910000,609.650000C274.600000,609.320000,275.540000,608.840000,275.720000,608.240000C278.220000,600.040000,283.690000,594.170000,290.430000,589.270000C290.620000,589.280000,290.810000,589.280000,291,589.280000Z"
                fill="rgb(1,80,123)"
                stroke="none"
                stroke-width="1"
            />
        </g>
    </g>
</svg>

<svg xmlns="http://www.w3.org/2000/svg" id="grafana" viewBox="0 0 769 769" width="500" height="500" shape-rendering="geometricPrecision" text-rendering="geometricPrecision" version="1.1">
  <style id="spin">
    @keyframes grafana_animation__tr{0%{transform:translate(381.556015px,384.486542px) rotate(0deg)}to{transform:translate(381.556015px,384.486542px) rotate(-360deg)}}#grafana_animation{animation:grafana_animation__tr 500ms linear infinite normal forwards}
  </style>
  <g id="background" transform="matrix(4 0 0 4 -761.4 -2310.823)">
    <path id="square" d="M382.13 673.85v72.19c0 11.03-8.32 21.11-19.18 23.18-1.61.31-3.27.48-4.9.48-47.97.03-95.93.02-143.9.02-11.76 0-22.02-9.02-23.56-20.72a23.27 23.27 0 01-.23-3.12c-.01-48.09-.01-96.18-.01-144.26 0-11.03 8.32-21.12 19.18-23.18 1.61-.31 3.27-.48 4.9-.48 48.01-.02 96.02-.02 144.02-.02 11.03 0 21.13 8.33 23.18 19.18.3 1.61.48 3.27.48 4.9.03 23.95.02 47.89.02 71.83z" fill="#FE8A30" stroke="none" stroke-width="1"/>
  </g>
  <g id="grafana_animation" transform="translate(381.556 384.487)">
    <g id="grafana_group" transform="matrix(4 0 0 4 -1136.935 -2695.27)">
      <path id="grafana_logo" d="M291 589.28c6.83 3.75 11.82 9.13 14.76 16.4.3.75 1.31 1.46 2.13 1.71 4.57 1.39 9.17 2.69 13.8 3.87.93.24 2.19.12 3.02-.34 4.14-2.26 8.58-3.22 13.23-3.49 1.77-.1 2.74.55 3.43 2.18 1.86 4.41 2.87 8.88 2.28 13.72-.15 1.22.59 2.88 1.47 3.83 10.42 11.4 16.26 24.69 16.93 40.17.03.75.16 1.55-.05 2.24-.18.61-.76 1.1-1.17 1.65-.53-.42-1.33-.74-1.53-1.28-.97-2.54-1.6-5.21-2.65-7.71-8.82-20.95-24.11-34.49-46.89-37.05-28.86-3.24-52.84 9.91-58.84 43.72-4.87 27.44 12.51 48.54 33.21 54.38 15.71 4.44 29.86 1.97 40.58-11.12 8.13-9.92 11.05-21.41 5.8-33.73-5.16-12.12-19.37-18.82-31.19-15.24-10.24 3.1-17 13.78-15.22 24.05 1.92 11.06 13.7 17.55 24.06 13.36.88-.35 2.11.17 3.17.28-.45.98-.63 2.34-1.39 2.9-6.62 4.88-16.91 4.43-24.61-.92-10.48-7.28-13.97-20.89-8.66-33.78 6.56-15.92 23.49-23.97 41.24-19.61 20.9 5.13 34.89 24.55 33.28 46.03-.08 1.08.52 2.51 1.29 3.3 3.85 3.96 6.4 8.58 7.38 13.99.17.92-.35 2.4-1.06 2.96-3.84 3.03-8.23 4.97-13.18 5.05-1.97.03-2.86.96-4.04 2.31-3.83 4.36-7.99 8.44-11.89 12.73-.9.99-1.74 2.38-1.9 3.67-.82 7-3.83 12.92-8.48 18.06-.53.59-1.84.92-2.66.75-6.52-1.37-12.1-4.42-16.63-9.42-.86-.94-2.44-1.49-3.77-1.7-6.66-1.05-13.34-1.99-20.03-2.81-1.32-.16-2.97-.01-4.06.66-6.98 4.27-14.47 6.59-22.66 6.84-2.24.07-3.09-.77-3.69-2.79-2.09-7.04-2.29-14.08-.3-21.13.44-1.57.18-2.51-.81-3.76-2.75-3.45-5.25-7.09-7.9-10.62-.53-.7-1.21-1.65-1.93-1.78-11.56-1.94-20.71-7.99-28.52-16.42v-1.13c.14-.12.34-.21.4-.36 3.86-9.79 10.19-17.44 19.36-22.72.74-.43 1.3-1.54 1.53-2.43 1.27-5.09 2.45-10.21 3.54-15.34.17-.79.02-1.86-.41-2.52-5.69-8.7-8.02-18.3-8.03-28.61 0-2.23.69-3.39 2.81-4.13 9.71-3.39 19.42-3.99 29.31-.78 1.04.34 2.5.05 3.55-.42 5.21-2.34 10.36-4.82 15.5-7.3.69-.33 1.63-.81 1.81-1.41 2.5-8.2 7.97-14.07 14.71-18.97.19.01.38.01.57.01z" fill="#FFF" stroke="none" stroke-width="1"/>
    </g>
  </g>
</svg>
